assets/icons/qvision/send_to_mobile.svg

<svg xmlns="http://www.w3.org/2000/svg" enable-background="new 0 0 24 24" height="24" viewBox="0 0 24 24" width="24"><rect fill="none" height="24" width="24"/><path d="M17,17h2v4c0,1.1-0.9,2-2,2H7c-1.1,0-2-0.9-2-2V3c0-1.1,0.9-1.99,2-1.99L17,1c1.1,0,2,0.9,2,2v4h-2V6H7v12h10V17z M22,12 l-4-4v3h-5v2h5v3L22,12z"/></svg>

<svg width="24" height="24" viewBox="0 0 24 24" fill="none" xmlns="http://www.w3.org/2000/svg">
<g clip-path="url(#clip0_147_2451)">
<path d="M17 17H19V21C19 22.1 18.1 23 17 23H7C5.9 23 5 22.1 5 21V3C5 1.9 5.9 1.01 7 1.01L17 1C18.1 1 19 1.9 19 3V7H17V6H7V18H17V17ZM22 12L18 8V11H13V13H18V16L22 12Z" fill="#323232"/>
</g>
<defs>
<clipPath id="clip0_147_2451">
<rect width="24" height="24" fill="white"/>
</clipPath>
</defs>
</svg>
